X: 251
T:The Toormore Slide
T:Johnny O'Leary's
C:Traditional
Z:Gordon Turnbull, Edinburgh
N:Play 3 times through
D:Paul McGrattan, 'The Frost is All Over'
D:Any Old Time, 'Phoenix'
R:Slide
M:12/8
L:1/8
K:Bm
F2 A BAB d2 e f3 | e3 efe c2 e a3 |\
F2 A BAB d2 e f3 | f e2 d B2 A B3 B3 :|
f3 efe ded c3 | ABB c2 A BAF F2 E |\
F2 A BAB d2 e f3 | f e2 d B2 A B3 B3 :|

